X:1
T:Hanter dro klamm #2
C:trad.
Z:Stoney
S:Bleizi Ruz
O:Bretagne
R:Hanter Dro klamm
K:Am
M:3/2
L:1/8
"Am"ABcA "G"B2e2 "Em"dcBc|"Am"ABcA "G"B2e2 "Em"dcBc|"G"BAGA B2e2 "Em"dcB2:|
|:"C"eged c2BA "Dm"d4|\
M:2/4
L:1/8
"G"BcBA G2AB|"C"c2z6|\
M:3/4
L:1/8
"G"eged c2BA "Dm"B4|"Em"eggd e2cB "Am"A4:| %%
